X:917
T:St Mary's Polka
S:The Chieftains
Z:Nigel Gatherer
M:2/4
L:1/8
K:G
GB AB/A/ | Gg e/f/g/e/ | dB AG/A/ | B>A G/F/E/D/ | 
GB AB/A/ | Gg e/f/g/e/ | dB AG/A/ | BG  G2      :|
Bd g>d   | Bd g>d      | Bd ge    | f2  f>g      | 
aa/g/ e/f/g/e/ | dB AG/A/ | Be d/B/A/B/ | GG G2 :|
